X:1
T:I’ll Not Forget to Pray
T:I’ll Not Forget to Pray
T:Andrew Linnaeus Byers
T:Mary Jane Helphingstine, 1914
T:Public Domain Courtesy of the Cyber Hymnal™
C:Andrew Linnaeus Byers
Z:Public Domain
Z:Courtesy of the Cyber Hymnal™
%%score ( 1 2 ) ( 3 4 )
L:1/8
Q:1/4=103
M:6/8
K:G
V:1 treble 
V:2 treble 
V:3 bass 
V:4 bass 
V:1
 [DB] | [DB]2 [B,D] [B,D]2 [DB] | [Ec]2 [CE] [CE]2 [EA] | (AG)[DF] [^CG]2 [CE] | D3- D2 [DB] | %5
w: 1.~I’m|Je- sus’ lit- tle|trust- ing child, I|need * Him ev- ery|day, * To|
w: 2.~I|thank Him for His|lov- ing care, That|an- * gels near me|stay; * At|
w: 3.~And|ev- ery morn, be-|fore I start Up-|on * an- o- ther|day, * I’ll|
w: 4.~Or|should some tri- al|come a- pace I’ll|hast- * en then a-|way, * To|
 [DB]2 [B,D] [B,D]2 [DB] | [Ec]2 [CE] [CE]2 [Ec] | (BA)[DG] [DA]2 [DF] | [DG]3- [DG]2 || %9
w: shield me from temp-|ta- tions wild— I’ll|not * for- get to|pray. *|
w: ev- ening shall as-|cend my prayer— I’ll|not * for- get to|pray. *|
w: ask the Lord to|keep my heart— I’ll|not * for- get to|pray. *|
w: ask the Lord for|strength and grace— I’ll|not * for- get to|pray. *|
"^Refrain" B | (de)[Gd] [GB]2 G | c3- [Fc]2 A | cd[Fc] [FA]2 D | B3- [DB]2 [GB] | %14
w: |||||
w: |||||
w: I’ll|not * for- get to|pray, I’ll not|* * for- get to|pray; To Je-|
w: |||||
 [Gd][Ge][Gd] [DG]2 [DF] | [CF]2 [CE] !fermata![Ec]2 [EA] | (GA)[DB] [CD]2 [CA] | [B,G]3- [B,G]2 |] %18
w: ||||
w: ||||
w: * sus I’ll bear my|ev- ery care, I’ll|not * for- get to|pray. *|
w: ||||
V:2
 x | x6 | x6 | D2 x4 | D3- D2 x | x6 | x6 | D2 x4 | x5 || x | x5 G | F2 F x3 | x5 D | D2 D x3 | %14
 x6 | x6 | D2 x4 | x5 |] %18
V:3
 G, | G,2 G, G,2 G, | [C,G,]2 [C,G,] [C,G,]2 [C,C] | (CB,)[D,A,] [A,,A,]2 [A,,G,] | %4
 [D,F,]3- [D,F,]2 G, | G,2 G, G,2 G, | [C,G,]2 [C,G,] [C,G,]2 [C,G,] | (G,A,)[D,B,] [D,C]2 [D,C] | %8
 [G,,B,]3- [G,,B,]2 || G, | (B,C)[G,B,] [G,D]2 [G,B,] | A,3- [D,A,]2 F, | %12
 A,B,[D,A,] [D,C]2 [D,F,] | G,3- G,2 G, | [G,B,][G,C][G,B,] [G,B,]2 [B,,G,] | %15
 [C,G,]2 [C,G,] !fermata![C,G,]2 [C,A,] | [D,B,]2 [D,G,] [D,F,]2 [D,F,] | [G,,G,]3- [G,,G,]2 |] %18
V:4
 G, | G,2 G, G,2 G, | x6 | D,2 x4 | x5 G, | G,2 G, G,2 G, | x6 | D,2 x4 | x5 || x | x6 | %11
 D,2 D, x3 | x6 | (G,2 G, G,2) G, | x6 | x6 | x6 | x5 |] %18

